X:69
T:Albert Farmer's Bonfire Tune
M:4/4
L:1/4
K:D
d/2e/2 |:  f>d A F | G G/2F/2 G2 | e/2d/2c/2A/2 B c | d/2f/2f/2d/2 A
d/2e/2 |  f>d A F | G G/2F/2 G2 !| e/2d/2c/2A/2 B c |d3 d/2e/2 :|:
f f/2d/2 f f | g/2e/2 f/2d/2 e>f | g/2f/2e/2d/2 c/2A/2B/2c/2 |! 
d/2f/2f/ 2d/2  A d/2e/2 | f>d A F | G G/2F/2 G2 | e/2d/2c/2A/2 B c |1 
d3 d/2e/2 |2 d3 :|
